Media/Icons/inverted/S11.svg

<?xml version="1.0" standalone="no"?>
<!DOCTYPE svg PUBLIC "-//W3C//DTD SVG 1.1//EN" "http://www.w3.org/Graphics/SVG/1.1/DTD/svg11.dtd">
<svg xmlns="http://www.w3.org/2000/svg" width="5500.000mm" height="5000.000mm" viewBox="0 0 5500.000 5000.000">
	<path style="#ffffff" d="m3000.000,-0.000l1000.000,-0.000l0.000,500.000l-500.000,500.000l500.000,-0.000l0.000,4000.000l-1000.000,-0.000l0.000,-4000.000l-1000.000,-0.000l500.000,-500.000zm-2000.000,-0.000l1000.000,-0.000l-700.000,2000.000l700.000,-0.000l-1000.000,3000.000l-1000.000,-0.000l700.000,-2000.000l-700.000,-0.000zm3500.000,-0.000l1000.000,-0.000l0.000,5000.000l-1000.000,-0.000l0.000,-4000.000l-500.000,-0.000l0.000,-500.000z"/>
</svg>

<?xml version="1.0" standalone="no"?>
<!DOCTYPE svg PUBLIC "-//W3C//DTD SVG 1.1//EN" "http://www.w3.org/Graphics/SVG/1.1/DTD/svg11.dtd">
<svg xmlns="http://www.w3.org/2000/svg" width="5500.000mm" height="5000.000mm" viewBox="0 0 5500.000 5000.000">
    <path fill="#ffffff" d="M 1000,0 L 2000,0 L 1300,2000 L 2000,2000 L 1000,5000 L 0,5000 L 700,3000 L 0,3000 Z" />

    <path fill="#ffffff" d="M 3000,0 L 4000,0 L 4000,500 L 3500,1000 L 4000,1000 L 4000,5000 L 3000,5000 L 3000,1000 L 2000,1000 L 2500,500 Z" />
    
    <path fill="#ffffff" d="M 4500,0 L 5500,0 L 5500,5000 L 4500,5000 L 4500,1000 L 4000,1000 L 4000,500 Z" />
</svg>
